X: 1758
T: The Old Arrow Inn
B: australian traditional tunes wiki
M:6/8
L:1/8
R: Jig
Q: 3/8=100
K:D
V:1 
|:B|"D"BAA AGA|"G"BABd2B|"D"BAA AGA|"G"BdBG2B|"D"BAA AGA|"G"BABd2g|"D"faa "A7"age|"D"eddd2:|!
|:g|"D"fed "A7"eAA|"D"(3f/g/f/ed "A7"e2g|"D"fed "Em"edB|"D"BAA A2g|fed "A7"eAA|"D"(3f/g/f/ed "A7"e2g|"D"faa "A7"age|"D"eddd2:|!
|:F/G/|"D"ABA AFA|B2AA2F/G/|ABA ABA|"A7"G2E EFG|"D"ABA AFA|d2d efg|"D"fed "A7"ABc|"D"d2dd2:|!
|:g|"D"fed "Bm"fed|"A7"e2AA2g|"D"fed "Bm"fed|"A7"g2ee2g|"D"fed "Bm"fed|"Em"gfe "A7"a2a|"D"fed "A7"ABc|"D"d3d2:|
% abcbook-tune_id 6342d53afe175ed4dbd120d4


% abcbook-boost 0
% abcbook-tablature 
% abcbook-transpose 
% abcbook-lastupdated 1665324382070
% abcbook-soundfonts 
% abcbook-repeats 1
% NFF Book 2013

